dist/assets/images/product-icons/motor.svg

<svg width="116" height="103" viewBox="0 0 116 103" fill="none" xmlns="http://www.w3.org/2000/svg">
<path opacity="0.6" fill-rule="evenodd" clip-rule="evenodd" d="M19.5652 0.366341C14.4841 1.28399 10.4644 3.3606 6.89075 6.91338C3.83896 9.94752 1.8629 13.3509 0.695167 17.5839L0.0973638 19.7511L0.0243947 36.9866C-0.0533333 55.36 -0.000759209 56.5577 1.02965 59.8243C2.07546 63.1401 4.59403 67.4147 5.76176 67.8563C6.39718 68.0965 7.2012 67.8626 7.66984 67.3012C8.21552 66.6474 8.02131 65.7441 7.01969 64.2779C5.73162 62.3916 4.62304 60.0174 4.00778 57.827C3.50856 56.049 3.50063 55.8004 3.42539 39.3523C3.3735 28.0408 3.4297 22.0748 3.59966 20.7978C4.65748 12.8492 10.5245 6.24018 18.4434 4.07638C20.1233 3.61744 20.8838 3.57351 28.8109 3.47821L37.3656 3.37547V38.1091V72.8427L28.6976 72.758L20.0297 72.6731L17.9902 72.0526C16.8685 71.7112 15.0048 70.9308 13.8489 70.3184C12.6929 69.7058 11.5596 69.2048 11.3301 69.2048C10.5496 69.2048 9.71887 70.0742 9.71887 70.8909C9.71887 71.8196 10.466 72.4969 12.7564 73.6448C15.8016 75.1707 19.722 76.1891 22.5521 76.1891H23.7688V81.2447V86.3L17.9336 86.3703L12.0983 86.4403L10.7386 87.1032C9.9908 87.4677 8.86318 88.2788 8.23274 88.9056C6.06882 91.0568 5.43431 93.2251 5.42026 98.5167C5.41278 101.289 5.6539 102.421 6.32852 102.779C6.59524 102.921 23.3602 103 53.2873 103H99.8314L100.342 102.46C100.841 101.932 100.85 101.826 100.778 97.4472L100.704 92.9741L99.9765 91.4477C99.0963 89.6002 97.4828 87.9649 95.665 87.0779L94.3585 86.4403L88.4666 86.3277L82.5747 86.215V81.2584V76.3018L86.4271 76.1887C90.0248 76.083 90.367 76.0348 91.602 75.46C93.4328 74.6079 94.5197 73.6957 95.5734 72.1269C97.0337 69.953 97.1912 68.8247 97.1912 60.5426V53.4337H101.454C104.772 53.4337 105.813 53.3629 106.156 53.1146C106.546 52.8316 106.609 52.4275 106.709 49.5661L106.822 46.3367L110.945 46.2754L115.069 46.2139L115.534 45.6254C115.981 45.0605 116 44.7573 116 38.1131C116 31.469 115.981 31.1657 115.534 30.6009L115.069 30.0124L110.945 29.9509L106.822 29.8896L106.759 26.8032C106.674 22.6072 106.924 22.7926 101.353 22.7926H97.1912V15.8497C97.1912 8.29268 97.0507 6.94853 96.0552 4.98795C95.2045 3.31261 93.0748 1.35947 91.3639 0.685593C90.166 0.213811 89.6187 0.161992 85.0192 0.0847137L79.9857 0L79.4105 0.57159C78.6781 1.29976 78.6572 2.27036 79.36 2.92689C79.8606 3.39439 80.0813 3.4167 84.1911 3.4167C89.0517 3.4167 90.1834 3.62803 91.6118 4.8023C92.0951 5.19996 92.7317 6.03921 93.0258 6.66758L93.5609 7.81008L93.5631 38.1767C93.5649 63.4352 93.513 68.6681 93.2538 69.2847C92.8094 70.3423 91.6079 71.6286 90.5277 72.2033L89.5997 72.6969L65.2955 72.7573L40.9914 72.8175V38.1172V3.4167H57.5968C75.6483 3.4167 74.9782 3.46356 75.302 2.18092C75.4677 1.52462 74.9598 0.388195 74.4065 0.177087C74.2048 0.100259 62.1424 0.0464124 47.6012 0.0574521C27.1682 0.0732233 20.8 0.143292 19.5652 0.366341ZM46.8833 7.92273C46.2084 8.59368 46.2789 9.79949 47.0272 10.3846C47.62 10.8483 47.7546 10.8517 65.8462 10.8517H84.0683L84.6244 10.2985C85.3113 9.61587 85.3575 8.54907 84.7275 7.92273C84.2818 7.47956 83.9722 7.47213 65.8054 7.47213C47.6386 7.47213 47.329 7.47956 46.8833 7.92273ZM46.9227 20.3851C46.2957 21.0488 46.2769 22.1897 46.8833 22.7926C47.329 23.2358 47.6386 23.2432 65.766 23.2432H84.1952L84.6881 22.7219C85.3851 21.984 85.3389 20.9213 84.5836 20.3308C83.9908 19.8671 83.8569 19.8637 65.7009 19.8637H47.4156L46.9227 20.3851ZM103.31 38.1131V50.0541H100.25H97.1912V38.1131V26.1722H100.25H103.31V38.1131ZM112.601 38.1131V42.8445H109.655H106.709V38.1131V33.3818H109.655H112.601V38.1131ZM46.8833 36.3107C46.2084 36.9817 46.2789 38.1875 47.0272 38.7726C47.62 39.2363 47.7551 39.2397 65.8054 39.2397C83.8557 39.2397 83.9908 39.2363 84.5836 38.7726C85.3319 38.1875 85.4024 36.9817 84.7275 36.3107C84.2818 35.8676 83.9722 35.8601 65.8054 35.8601C47.6386 35.8601 47.329 35.8676 46.8833 36.3107ZM47.0272 52.0983C46.2789 52.6834 46.2084 53.8892 46.8833 54.5602C47.329 55.0033 47.6386 55.0108 65.8054 55.0108C83.9722 55.0108 84.2818 55.0033 84.7275 54.5602C85.4024 53.8892 85.3319 52.6834 84.5836 52.0983C83.9908 51.6346 83.8557 51.6312 65.8054 51.6312C47.7551 51.6312 47.62 51.6346 47.0272 52.0983ZM46.8833 64.6987C46.2084 65.3697 46.2789 66.5755 47.0272 67.1606C47.62 67.6243 47.7551 67.6276 65.8054 67.6276C83.8557 67.6276 83.9908 67.6243 84.5836 67.1606C85.3319 66.5755 85.4024 65.3697 84.7275 64.6987C84.2818 64.2556 83.9722 64.2481 65.8054 64.2481C47.6386 64.2481 47.329 64.2556 46.8833 64.6987ZM79.0622 81.2584V86.3277H53.2284H27.3946V81.2584V76.1891H53.2284H79.0622V81.2584ZM93.5976 89.9688C94.8408 90.339 96.256 91.6292 96.8798 92.9615C97.3482 93.9613 97.4137 94.4376 97.4155 96.8605L97.4178 99.6205H53.2284H9.03903L9.04039 96.9732C9.04107 95.5173 9.15211 93.93 9.28717 93.4461C9.59446 92.3459 11.6242 90.2723 12.6927 89.9668C13.8706 89.6299 92.4666 89.6317 93.5976 89.9688Z" fill="#231F20"/>
</svg>

<svg width="116" height="103" fill="none" xmlns="http://www.w3.org/2000/svg"><path opacity=".6" fill-rule="evenodd" clip-rule="evenodd" d="M19.565.366c-5.08.918-9.1 2.995-12.674 6.547-3.052 3.035-5.028 6.438-6.196 10.67l-.598 2.168-.073 17.236C-.053 55.36 0 56.557 1.03 59.824c1.045 3.316 3.564 7.59 4.732 8.032.635.24 1.44.007 1.908-.555.546-.654.351-1.557-.65-3.023-1.288-1.886-2.397-4.26-3.012-6.451-.5-1.778-.507-2.027-.583-18.475-.051-11.311.005-17.277.175-18.554C4.657 12.849 10.525 6.24 18.443 4.076c1.68-.459 2.44-.502 10.368-.598l8.555-.103v69.468l-8.668-.085-8.668-.085-2.04-.62c-1.121-.342-2.985-1.122-4.141-1.735-1.156-.612-2.29-1.113-2.519-1.113-.78 0-1.611.87-1.611 1.686 0 .929.747 1.606 3.037 2.754 3.046 1.526 6.966 2.544 9.796 2.544h1.217V86.3l-5.835.07-5.836.07-1.36.663c-.747.365-1.875 1.176-2.505 1.803-2.164 2.15-2.799 4.32-2.813 9.61-.007 2.773.234 3.905.909 4.263.266.142 17.031.221 46.958.221h46.544l.511-.54c.499-.528.508-.634.436-5.013l-.074-4.473-.727-1.526c-.88-1.848-2.494-3.483-4.312-4.37l-1.306-.638-5.892-.112-5.892-.113v-9.913l3.852-.113c3.598-.106 3.94-.154 5.175-.729 1.83-.852 2.918-1.764 3.971-3.333 1.46-2.174 1.618-3.302 1.618-11.584v-7.11h4.263c3.318 0 4.359-.07 4.702-.318.39-.283.453-.688.553-3.549l.113-3.23 4.123-.06 4.124-.062.465-.589c.447-.565.466-.868.466-7.512 0-6.644-.019-6.947-.466-7.512l-.465-.589-4.124-.061-4.123-.061-.063-3.087c-.085-4.196.165-4.01-5.406-4.01h-4.162V15.85c0-7.557-.14-8.901-1.136-10.862-.85-1.675-2.98-3.629-4.691-4.302-1.198-.472-1.745-.524-6.345-.601L79.986 0l-.576.572c-.732.728-.753 1.698-.05 2.355.5.467.721.49 4.831.49 4.86 0 5.992.211 7.42 1.385.484.398 1.12 1.237 1.415 1.866l.535 1.142.002 30.367c.002 25.258-.05 30.491-.31 31.108-.444 1.057-1.645 2.344-2.725 2.918l-.928.494-24.304.06-24.305.06v-69.4h16.606c18.051 0 17.381.047 17.705-1.236.166-.656-.342-1.793-.896-2.004-.2-.077-12.264-.13-26.805-.12C27.168.073 20.8.143 19.565.367zm27.318 7.557c-.675.67-.604 1.876.144 2.462.593.463.728.467 18.82.467h18.221l.556-.553c.687-.683.734-1.75.104-2.376-.446-.443-.756-.45-18.923-.45-18.166 0-18.476.007-18.922.45zm.04 12.462c-.627.664-.646 1.805-.04 2.408.446.443.756.45 18.883.45h18.43l.492-.521c.697-.738.65-1.8-.104-2.391-.593-.464-.727-.467-18.883-.467H47.416l-.493.521zm56.387 17.728v11.941h-6.119V26.172h6.119v11.941zm9.291 0v4.731h-5.892v-9.462h5.892v4.731zm-65.718-1.802c-.675.67-.604 1.877.144 2.462.593.463.728.467 18.778.467 18.05 0 18.186-.004 18.779-.467.748-.586.818-1.791.144-2.462-.446-.443-.756-.45-18.923-.45-18.166 0-18.476.007-18.922.45zm.144 15.787c-.748.585-.819 1.791-.144 2.462.446.443.756.45 18.922.45 18.167 0 18.477-.007 18.922-.45.675-.67.605-1.877-.143-2.462-.593-.463-.728-.467-18.779-.467-18.05 0-18.185.004-18.778.467zm-.144 12.6c-.675.672-.604 1.878.144 2.463.593.463.728.467 18.778.467 18.05 0 18.186-.004 18.779-.467.748-.585.818-1.791.144-2.462-.446-.443-.756-.45-18.923-.45-18.166 0-18.476.007-18.922.45zm32.18 16.56v5.07H27.394V76.189h51.667v5.07zm14.535 8.71c1.243.371 2.658 1.661 3.282 2.993.468 1 .534 1.477.535 3.9l.003 2.76H9.039l.001-2.648c.001-1.456.112-3.043.247-3.527.307-1.1 2.337-3.174 3.406-3.48 1.178-.336 79.774-.334 80.905.003z" fill="#231F20"/></svg>
